polaris-icons/icons/newicons/PaperCheckMajor.svg

<svg width="20" height="20" viewBox="0 0 20 20" fill="none" xmlns="http://www.w3.org/2000/svg">
<path d="M14.25 4.75011L13.6035 5.39659L12.1035 3.89659L12.75 3.25011C13.1642 2.8359 13.8358 2.8359 14.25 3.25011C14.6642 3.66433 14.6642 4.3359 14.25 4.75011Z" fill="black"/>
<path d="M9.58759 9.41254L12.8964 6.1037L11.3964 4.6037L8.08759 7.91254C7.70311 8.29702 7.43036 8.77876 7.29848 9.30625L7.10108 10.0959C7.0553 10.279 7.22115 10.4448 7.40425 10.3991L8.19388 10.2016C8.72138 10.0698 9.20311 9.79702 9.58759 9.41254Z" fill="black"/>
<path d="M3.5 9.25C3.5 8.55964 4.05964 8 4.75 8H5.75C6.16421 8 6.5 7.66421 6.5 7.25C6.5 6.83579 6.16421 6.5 5.75 6.5H4.75C3.23122 6.5 2 7.73122 2 9.25V13.25C2 14.7688 3.23122 16 4.75 16H15.25C16.7688 16 18 14.7688 18 13.25V9.25C18 7.73122 16.7688 6.5 15.25 6.5H14.75C14.3358 6.5 14 6.83579 14 7.25C14 7.66421 14.3358 8 14.75 8H15.25C15.9404 8 16.5 8.55964 16.5 9.25V13.25C16.5 13.9404 15.9404 14.5 15.25 14.5H4.75C4.05964 14.5 3.5 13.9404 3.5 13.25V9.25Z" fill="black"/>
<path d="M5 12.25C5 11.8358 5.33579 11.5 5.75 11.5H11.25C11.6642 11.5 12 11.8358 12 12.25C12 12.6642 11.6642 13 11.25 13H5.75C5.33579 13 5 12.6642 5 12.25Z" fill="black"/>
<path d="M13.75 11.5C13.3358 11.5 13 11.8358 13 12.25C13 12.6642 13.3358 13 13.75 13H14.25C14.6642 13 15 12.6642 15 12.25C15 11.8358 14.6642 11.5 14.25 11.5H13.75Z" fill="black"/>
</svg>

<svg viewBox="0 0 20 20" fill="none" xmlns="http://www.w3.org/2000/svg"><path d="m14.25 4.75-.646.647-1.5-1.5.646-.647a1.06 1.06 0 0 1 1.5 1.5Z" fill="#5C5F62"/><path d="m9.588 9.413 3.308-3.31-1.5-1.5-3.308 3.31a3 3 0 0 0-.79 1.393l-.197.79a.25.25 0 0 0 .303.303l.79-.197a3 3 0 0 0 1.394-.79Z" fill="#5C5F62"/><path d="M3.5 9.25c0-.69.56-1.25 1.25-1.25h1a.75.75 0 0 0 0-1.5h-1a2.75 2.75 0 0 0-2.75 2.75v4a2.75 2.75 0 0 0 2.75 2.75h10.5a2.75 2.75 0 0 0 2.75-2.75v-4a2.75 2.75 0 0 0-2.75-2.75h-.5a.75.75 0 0 0 0 1.5h.5c.69 0 1.25.56 1.25 1.25v4c0 .69-.56 1.25-1.25 1.25h-10.5c-.69 0-1.25-.56-1.25-1.25v-4Z" fill="#5C5F62"/><path d="M5 12.25a.75.75 0 0 1 .75-.75h5.5a.75.75 0 0 1 0 1.5h-5.5a.75.75 0 0 1-.75-.75Z" fill="#5C5F62"/><path d="M13.75 11.5a.75.75 0 0 0 0 1.5h.5a.75.75 0 0 0 0-1.5h-.5Z" fill="#5C5F62"/></svg>
